resources/svg/checkbox-circle-fill.svg

<svg fill="currentColor" viewBox="0 0 24 24" xmlns="http://www.w3.org/2000/svg"><path d="M12 22C6.47715 22 2 17.5228 2 12C2 6.47715 6.47715 2 12 2C17.5228 2 22 6.47715 22 12C22 17.5228 17.5228 22 12 22ZM11.0026 16L18.0737 8.92893L16.6595 7.51472L11.0026 13.1716L8.17421 10.3431L6.75999 11.7574L11.0026 16Z"/></svg>

<svg xmlns="http://www.w3.org/2000/svg" viewBox="0 0 24 24" fill="currentColor">
    <g>
        <path fill="none" d="M0 0h24v24H0z"/>
        <path d="M12 22C6.477 22 2 17.523 2 12S6.477 2 12 2s10 4.477 10 10-4.477 10-10 10zm-.997-6l7.07-7.071-1.414-1.414-5.656 5.657-2.829-2.829-1.414 1.414L11.003 16z"/>
    </g>
</svg>
